img/wifiguard/scanView.svg

<svg xmlns="http://www.w3.org/2000/svg" height="24" viewBox="0 0 24 24" width="24"><path d="M0 0h24v24H0z" fill="none"/><path d="M4 6v5h5V6zm6 0v2h11V6zm0 3v2h9V9zm-6 4v5h5v-5zm6 0v2h11v-2zm0 3v2h9v-2z" fill="#fff"/></svg>

<svg xmlns="http://www.w3.org/2000/svg" height="24" viewBox="0 0 24 24" width="24"><path d="M0 0h24v24H0z" fill="none"/><path d="M4,6 v5 h5 v-5z M10,6 v2 h11 v-2z M10,9 v2 h9 v-2z M4,13 v5 h5 v-5z M10,13 v2 h11 v-2z M10,16 v2 h9 v-2z" fill="white"/></svg>
